packages/foundations/assets/icons/functional/images/transportation/electric_scooter_20_inverted.svg

<svg width="20" height="20" viewBox="0 0 20 20" fill="none" xmlns="http://www.w3.org/2000/svg">
<g clip-path="url(#clip0_2214_6800)">
<path fill-rule="evenodd" clip-rule="evenodd" d="M14.3948 2.31988L13.0723 2.75853C12.4357 2.94947 12.0393 3.5715 12.1204 4.21837L13.5576 10.8663C12.6643 11.2485 11.9554 11.778 11.445 12.4585C10.9864 13.07 10.6515 13.79 10.4373 14.6133L6.13885 14.6145C5.78558 13.9312 5.0724 13.4641 4.25 13.4641C3.07662 13.4641 2.125 14.4155 2.125 15.5891C2.125 16.7628 3.07662 17.7141 4.25 17.7141C5.16894 17.7141 5.95152 17.1311 6.24798 16.3146C9.54721 16.3146 11.1968 16.3135 11.1968 16.3112C11.3367 16.3112 11.8632 16.1533 11.9634 15.6043C12.1086 14.7354 12.3911 14.0304 12.805 13.4785C13.0758 13.1175 13.451 12.8118 13.9386 12.5634L14.2748 14.0597C13.8742 14.4462 13.625 14.9886 13.625 15.5891C13.625 16.7628 14.5766 17.7141 15.75 17.7141C16.9237 17.7141 17.875 16.7629 17.875 15.5891C17.875 14.5175 17.0669 13.5549 15.886 13.4679C15.886 13.475 15.2153 10.4166 13.874 4.29262L14.8832 3.9482C15.3142 3.81786 15.5999 3.31568 15.4531 2.88983C15.3064 2.46398 14.8832 2.1855 14.3948 2.31988ZM7.46506 11.6025C6.36393 10.5394 5.1931 10.1976 3.77217 10.3702C3.30616 10.4269 2.97427 10.8505 3.03088 11.3165C3.08749 11.7826 3.51116 12.1144 3.97718 12.0578C4.91201 11.9443 5.57064 12.1365 6.28429 12.8255C6.62201 13.1516 7.16012 13.1422 7.48618 12.8044C7.81225 12.4667 7.80279 11.9286 7.46506 11.6025Z" fill="#1A1C1F"/>
</g>
<defs>
<clipPath id="clip0_2214_6800">
<rect width="20" height="20" fill="white"/>
</clipPath>
</defs>
</svg>

<svg xmlns="http://www.w3.org/2000/svg" width="20" height="20" fill="none"><g clip-path="url(#a)"><path fill="#1A1C1F" fill-rule="evenodd" d="m14.395 2.32-1.323.439a1.35 1.35 0 0 0-.952 1.46l1.438 6.647c-.894.383-1.603.912-2.113 1.593q-.687.918-1.008 2.154l-4.298.002a2.125 2.125 0 1 0 .109 1.7q4.95 0 4.949-.004c.14 0 .666-.158.766-.707.146-.869.428-1.574.842-2.125q.403-.542 1.134-.916l.336 1.497a2.125 2.125 0 1 0 1.611-.592q0 .01-2.012-9.175l1.01-.345c.43-.13.716-.632.57-1.058-.148-.426-.57-.704-1.06-.57m-6.93 9.282c-1.101-1.063-2.272-1.404-3.693-1.232a.85.85 0 0 0 .205 1.688c.935-.114 1.594.079 2.307.768a.85.85 0 1 0 1.181-1.224" clip-rule="evenodd"/></g><defs><clipPath id="a"><path fill="#fff" d="M0 0h20v20H0z"/></clipPath></defs></svg>
